dist/img/calendar.svg

<svg width="36" height="36" fill="none" xmlns="http://www.w3.org/2000/svg"><rect width="36" height="36" rx="10" fill="#fff"/><path d="M13 17h2v2h-2v-2zm0 4h2v2h-2v-2zm4-4h2v2h-2v-2zm0 4h2v2h-2v-2zm4-4h2v2h-2v-2zm0 4h2v2h-2v-2z" fill="#C5528B"/><path d="M11 28h14c1.103 0 2-.897 2-2V12c0-1.103-.897-2-2-2h-2V8h-2v2h-6V8h-2v2h-2c-1.103 0-2 .897-2 2v14c0 1.103.897 2 2 2zm14-14l.001 12H11V14h14z" fill="#C5528B"/></svg>

<svg width="36" height="36" viewBox="0 0 36 36" fill="none" xmlns="http://www.w3.org/2000/svg">
<rect width="36" height="36" rx="10" fill="white"/>
<path d="M13 17H15V19H13V17ZM13 21H15V23H13V21ZM17 17H19V19H17V17ZM17 21H19V23H17V21ZM21 17H23V19H21V17ZM21 21H23V23H21V21Z" fill="#C5528B"/>
<path d="M11 28H25C26.103 28 27 27.103 27 26V12C27 10.897 26.103 10 25 10H23V8H21V10H15V8H13V10H11C9.897 10 9 10.897 9 12V26C9 27.103 9.897 28 11 28ZM25 14L25.001 26H11V14H25Z" fill="#C5528B"/>
</svg>
